X: 37288
T: Skipping Lambs
R: reel
M: 4/4
K: Amajor
F|~E3F ABce|fc (3ccc ABce|a2 ga (3fga ec|dBcA BAFA|
~E3F ABce|fc (3ccc ABce|a2 ga (3fga ec|dcBd cAA:|
|:e|a2ga fdec|dBcA BAGA|~E3F ABce|fc (3ccc ABce|
a2ga (3fga ec|dBcA BAFA|~E3F ABce|(3fga ed cAA:|
|:B|cA (3AAA eAce|aAgA fAec|~B3c dcde|fB (3BBB fBdB|
cA (3AAA eAce|aAgA fAec|~B3c dcde|(3fga ed cAA:|

